X: 1293
T: McFadden's  Own Reel
R:Reel
N:Collected by McFadden
B:O'Neill's 1293
Z:Transcribed by Trish O'Neil
M:C|
L:1/8
K:D
(3FAF ED EA, {B,}(3A,G,A,|DFAc dBAG|F2AF EA,A,A|(3Bcd AG FDD2|
(3FAF ED EA, {B,}(3A,G,A,|DFAF DFdB|AGFD EA,A,A|(3Bcd AG "H"FDD2||
dAFA dgfe|dAFd BE {F}(3EDE|dAFA dgfe|dABG T(FD)D2|
d2{e}(dc) dgfe|d2{d}(cA) BE {F}EDE|TdcBc dbaf|dBAG "D.C."FAdA|]


